img/pen.svg

<svg width="42" height="42" viewBox="0 0 42 42" fill="none" xmlns="http://www.w3.org/2000/svg">
<path fill-rule="evenodd" clip-rule="evenodd" d="M38.528 0.651773C38.3422 0.467305 38.1217 0.320966 37.8789 0.221122C37.6361 0.121277 37.3758 0.0698853 37.113 0.0698853C36.8502 0.0698853 36.5899 0.121277 36.3471 0.221122C36.1043 0.320966 35.8837 0.467305 35.698 0.651773L33.954 2.38184C32.8339 1.85162 31.5756 1.67891 30.3524 1.88748C29.1293 2.09604 28.0013 2.67564 27.124 3.54646L5.90998 24.589L17.224 35.8126L38.44 14.7681C40.288 12.9368 40.678 10.2048 39.612 7.99464L41.358 6.26259C41.7329 5.89053 41.9436 5.38598 41.9436 4.85989C41.9436 4.33379 41.7329 3.82924 41.358 3.45718L38.528 0.651773ZM29.992 17.5358L17.224 30.2018L11.568 24.589L24.334 11.925L29.992 17.5378V17.5358ZM33.628 13.9289L35.608 11.9647C35.7939 11.7804 35.9415 11.5616 36.0421 11.3207C36.1428 11.0799 36.1946 10.8217 36.1946 10.561C36.1946 10.3002 36.1428 10.0421 36.0421 9.80122C35.9415 9.56036 35.7939 9.34154 35.608 9.15728L32.782 6.35187C32.5962 6.1674 32.3757 6.02107 32.1329 5.92122C31.8901 5.82138 31.6298 5.76998 31.367 5.76998C31.1042 5.76998 30.8439 5.82138 30.6011 5.92122C30.3583 6.02107 30.1377 6.1674 29.952 6.35187L27.972 8.31606L33.628 13.9308V13.9289Z" fill="#4694DC"/>
<path d="M0 41.6357L4.244 26.2039L15.556 37.4276L0 41.6357Z" fill="#4694DC"/>
</svg>

<svg xmlns="http://www.w3.org/2000/svg" width="42" height="42" fill="none"><path fill="#4694DC" fill-rule="evenodd" d="M38.528.652A2.002 2.002 0 0 0 37.113.07a2.014 2.014 0 0 0-1.415.582l-1.744 1.73a6.046 6.046 0 0 0-3.602-.495 6.018 6.018 0 0 0-3.228 1.66L5.91 24.588l11.314 11.224L38.44 14.768a5.915 5.915 0 0 0 1.172-6.773l1.746-1.732a1.976 1.976 0 0 0 0-2.806L38.528.652Zm-8.536 16.884L17.224 30.202l-5.656-5.613 12.766-12.664 5.658 5.613v-.002Zm3.636-3.607 1.98-1.964a1.983 1.983 0 0 0 .587-1.404 1.97 1.97 0 0 0-.587-1.404l-2.826-2.805a2.002 2.002 0 0 0-1.415-.582 2.014 2.014 0 0 0-1.415.582l-1.98 1.964 5.656 5.615v-.002Z" clip-rule="evenodd"/><path fill="#4694DC" d="m0 41.636 4.244-15.432 11.312 11.224L0 41.636Z"/></svg>
